svg/editor/AZ_sort_descending_letters_line.svg

<?xml version="1.0" encoding="UTF-8"?>
<svg width="24px" height="24px" viewBox="0 0 24 24" version="1.1" xmlns="http://www.w3.org/2000/svg" xmlns:xlink="http://www.w3.org/1999/xlink">
    <title>AZ_sort_descending_letters_line</title>
    <g id="Icon" stroke="none" stroke-width="1" fill="none" fill-rule="evenodd">
        <g id="Editor" transform="translate(-96.000000, -288.000000)">
            <g id="AZ_sort_descending_letters_line" transform="translate(96.000000, 288.000000)">
                <path d="M24,0 L24,24 L0,24 L0,0 L24,0 Z M12.5935,23.2578 L12.5819,23.2595 L12.5109,23.295 L12.4919,23.2987 L12.4767,23.295 L12.4057,23.2595 C12.3958,23.2564 12.387,23.259 12.3821,23.2649 L12.378,23.2758 L12.3609,23.7031 L12.3659,23.7235 L12.3769,23.7357 L12.4805,23.8097 L12.4953,23.8136 L12.5071,23.8097 L12.6107,23.7357 L12.6233,23.7197 L12.6267,23.7031 L12.6096,23.2758 C12.6076,23.2657 12.601,23.2593 12.5935,23.2578 Z M12.8584,23.1453 L12.8445,23.1473 L12.6598,23.2397 L12.6499,23.2499 L12.6472,23.2611 L12.6651,23.6906 L12.6699,23.7034 L12.6784,23.7105 L12.8793,23.8032 C12.8914,23.8069 12.9022,23.803 12.9078,23.7952 L12.9118,23.7812 L12.8777,23.1665 C12.8753,23.1546 12.8674,23.147 12.8584,23.1453 Z M12.143,23.1473 C12.1332,23.1424 12.1222,23.1453 12.1156,23.1526 L12.1099,23.1665 L12.0758,23.7812 C12.0751,23.7927 12.0828,23.8019 12.0926,23.8046 L12.1083,23.8032 L12.3092,23.7105 L12.3186,23.7024 L12.3225,23.6906 L12.3404,23.2611 L12.3372,23.2485 L12.3278,23.2397 L12.143,23.1473 Z" id="MingCute" fill-rule="nonzero"></path>
                <path d="M4.66369,11.9417 C5.1838,12.1275 5.75602,11.8564 5.94177,11.3363 L6.41903,10 L9.58102,10 L10.0583,11.3363 C10.244,11.8564 10.8163,12.1275 11.3364,11.9417 C11.8565,11.756 12.1275,11.1838 11.9418,10.6637 L9.60994,4.13453 C9.36695,3.45416 8.72249,3 8.00003,3 C7.27757,3 6.63311,3.45416 6.39012,4.13453 L4.05829,10.6637 C3.87253,11.1838 4.14358,11.756 4.66369,11.9417 Z M8.00003,5.57321 L8.86674,8 L7.13332,8 L8.00003,5.57321 Z M16.2929,4.29289 C16.6834,3.90237 17.3166,3.90237 17.7071,4.29289 L20.5356,7.12132 C20.9261,7.51184 20.9261,8.14501 20.5356,8.53553 C20.145,8.92606 19.5119,8.92606 19.1213,8.53553 L18,7.41422 L18,20 C18,20.5523 17.5523,21 17,21 C16.4477,21 16,20.5523 16,20 L16,7.41421 L14.8787,8.53553 C14.4882,8.92606 13.855,8.92606 13.4645,8.53553 C13.074,8.14501 13.074,7.51184 13.4645,7.12132 L16.2929,4.29289 Z M5.00003,13 C4.44774,13 4.00003,13.4477 4.00003,14 C4.00003,14.5523 4.44774,15 5.00003,15 L8.58581,15 L4.46363,19.1222 C3.77067,19.8151 4.26145,21 5.24145,21 L11,21 C11.5523,21 12,20.5523 12,20 C12,19.4477 11.5523,19 11,19 L7.41424,19 L11.5364,14.8778 C12.2294,14.1849 11.7386,13 10.7586,13 L5.00003,13 Z" id="形状" fill="#09244B"></path>
            </g>
        </g>
    </g>
</svg>

<svg xmlns="http://www.w3.org/2000/svg" width="24" height="24"><g fill="none" fill-rule="evenodd"><path d="M24 0v24H0V0h24ZM12.594 23.258l-.012.002-.071.035-.02.004-.014-.004-.071-.036c-.01-.003-.019 0-.024.006l-.004.01-.017.428.005.02.01.013.104.074.015.004.012-.004.104-.074.012-.016.004-.017-.017-.427c-.002-.01-.009-.017-.016-.018Zm.264-.113-.014.002-.184.093-.01.01-.003.011.018.43.005.012.008.008.201.092c.012.004.023 0 .029-.008l.004-.014-.034-.614c-.003-.012-.01-.02-.02-.022Zm-.715.002a.023.023 0 0 0-.027.006l-.006.014-.034.614c0 .012.007.02.017.024l.015-.002.201-.093.01-.008.003-.011.018-.43-.003-.012-.01-.01-.184-.092Z"/><path fill="#09244B" d="M4.664 11.942a1 1 0 0 0 1.278-.606L6.419 10h3.162l.477 1.336a1 1 0 0 0 1.884-.672L9.61 4.134a1.71 1.71 0 0 0-3.22 0l-2.332 6.53a1 1 0 0 0 .606 1.278ZM8 5.573 8.867 8H7.133L8 5.573Zm8.293-1.28a1 1 0 0 1 1.414 0l2.829 2.828a1 1 0 0 1-1.415 1.415L18 7.414V20a1 1 0 1 1-2 0V7.414l-1.121 1.122a1 1 0 1 1-1.415-1.415l2.829-2.828ZM5 13a1 1 0 1 0 0 2h3.586l-4.122 4.122C3.77 19.815 4.26 21 5.24 21H11a1 1 0 1 0 0-2H7.414l4.122-4.122c.693-.693.203-1.878-.777-1.878H5Z"/></g></svg>
